Sweet-Rainbow/icons/digikam.svg

<?xml version="1.0" encoding="UTF-8" standalone="no"?>
<!-- Generator: Gravit.io -->

<svg
   xmlns:dc="http://purl.org/dc/elements/1.1/"
   xmlns:cc="http://creativecommons.org/ns#"
   xmlns:rdf="http://www.w3.org/1999/02/22-rdf-syntax-ns#"
   xmlns:svg="http://www.w3.org/2000/svg"
   xmlns="http://www.w3.org/2000/svg"
   xmlns:sodipodi="http://sodipodi.sourceforge.net/DTD/sodipodi-0.dtd"
   xmlns:inkscape="http://www.inkscape.org/namespaces/inkscape"
   style="isolation:isolate"
   viewBox="0 0 36 36"
   width="48"
   height="48"
   version="1.1"
   id="svg30"
   sodipodi:docname="digikam.svg"
   inkscape:version="0.92.4 (5da689c313, 2019-01-14)">
  <metadata
     id="metadata36">
    <rdf:RDF>
      <cc:Work
         rdf:about="">
        <dc:format>image/svg+xml</dc:format>
        <dc:type
           rdf:resource="http://purl.org/dc/dcmitype/StillImage" />
        <dc:title></dc:title>
      </cc:Work>
    </rdf:RDF>
  </metadata>
  <defs
     id="defs34" />
  <sodipodi:namedview
     pagecolor="#ffffff"
     bordercolor="#666666"
     borderopacity="1"
     objecttolerance="10"
     gridtolerance="10"
     guidetolerance="10"
     inkscape:pageopacity="0"
     inkscape:pageshadow="2"
     inkscape:window-width="640"
     inkscape:window-height="480"
     id="namedview32"
     showgrid="false"
     inkscape:zoom="29.365243"
     inkscape:cx="25.325443"
     inkscape:cy="32"
     inkscape:current-layer="svg30"
     units="px" />
  <linearGradient
     id="_lgradient_15"
     x1="0"
     y1="0.5"
     x2="0.90748805"
     y2="0.92007786"
     gradientTransform="matrix(13.781,0,0,14.426,17.11,16.787)"
     gradientUnits="userSpaceOnUse">
    <stop
       offset="0%"
       stop-opacity="1"
       style="stop-color:rgb(0,196,255)"
       id="stop2" />
    <stop
       offset="83.88839793817618%"
       stop-opacity="1"
       style="stop-color:rgb(0,114,255)"
       id="stop4" />
  </linearGradient>
  <linearGradient
     id="_lgradient_16"
     x1="16"
     y1="24"
     x2="30.51981"
     y2="30.721247"
     gradientUnits="userSpaceOnUse">
    <stop
       offset="0%"
       stop-opacity="1"
       style="stop-color:rgb(0,196,255)"
       id="stop9" />
    <stop
       offset="83.88839793817618%"
       stop-opacity="1"
       style="stop-color:rgb(0,114,255)"
       id="stop11" />
  </linearGradient>
  <linearGradient
     id="_lgradient_17"
     x1="10.5"
     y1="24"
     x2="35.002178"
     y2="35.342102"
     gradientUnits="userSpaceOnUse">
    <stop
       offset="0%"
       stop-opacity="1"
       style="stop-color:rgb(0,196,255)"
       id="stop16" />
    <stop
       offset="83.88839793817618%"
       stop-opacity="1"
       style="stop-color:rgb(0,114,255)"
       id="stop18" />
  </linearGradient>
  <linearGradient
     id="_lgradient_18"
     x1="0"
     y1="0.5"
     x2="0.90748805"
     y2="0.92007786"
     gradientTransform="matrix(27.624,39.255,39.255,-27.624,-9.439,18.184)"
     gradientUnits="userSpaceOnUse">
    <stop
       offset="0%"
       stop-opacity="1"
       style="stop-color:rgb(0,196,255)"
       id="stop23" />
    <stop
       offset="83.88839793817618%"
       stop-opacity="1"
       style="stop-color:rgb(0,114,255)"
       id="stop25" />
  </linearGradient>
  <g
     id="g847"
     transform="matrix(0.75007508,0,0,0.75007508,-0.00180192,0.27355552)">
    <path
       id="path7"
       d="m 24.289,16.795 c 2.016,0.108 3.813,1.044 5.055,2.476 -1.07,-1.097 -2.477,-1.873 -4.056,-2.166 l -1.809,5.076 6.995,-1.16 c 0.173,0.379 0.313,0.775 0.416,1.186 -0.02,-0.067 -0.042,-0.133 -0.066,-0.198 v 0 l -5.362,0.993 4.332,5.173 c -0.206,0.29 -0.432,0.564 -0.677,0.82 l -3.386,-3.89 -2.31,6.108 C 23.057,31.189 22.7,31.139 22.353,31.063 l 1.666,-4.676 -6.466,1.072 c -0.171,-0.313 -0.319,-0.641 -0.443,-0.98 l 4.926,-0.913 -4.368,-5.216 c 0.184,-0.311 0.39,-0.608 0.616,-0.887 l 3.483,4 z m -0.516,-0.008 c -0.211,0.002 -0.42,0.014 -0.623,0.043 -0.117,0.004 -0.232,0.019 -0.342,0.046 -0.185,0.018 -0.364,0.052 -0.539,0.097 0.178,-0.041 0.357,-0.074 0.539,-0.097 0.113,-0.022 0.227,-0.037 0.342,-0.046 0.206,-0.025 0.414,-0.038 0.623,-0.043 z"
       style="fill:url(#_lgradient_15);fill-rule:evenodd"
       inkscape:connector-curvature="0" />
    <circle
       id="circle14"
       stroke-miterlimit="3"
       r="7.5"
       cy="24"
       cx="24"
       style="vector-effect:non-scaling-stroke;fill:none;stroke:url(#_lgradient_16);stroke-width:1;stroke-linecap:square;stroke-linejoin:miter;stroke-miterlimit:3" />
    <circle
       id="circle21"
       stroke-miterlimit="3"
       r="12.5"
       cy="24"
       cx="24"
       style="vector-effect:non-scaling-stroke;fill:none;stroke:url(#_lgradient_17);stroke-width:2;stroke-linecap:square;stroke-linejoin:miter;stroke-miterlimit:3" />
    <path
       id="path28"
       d="m 29.853,43.126 v 0 c -1.054,0.324 -1.648,1.443 -1.324,2.497 v 0 c 0.324,1.055 1.443,1.648 2.497,1.324 v 0 c 2.418,-0.735 4.7,-1.852 6.761,-3.302 C 44.616,38.839 48.481,30.813 47.949,22.481 47.674,18.076 46.183,13.819 43.645,10.213 38.839,3.384 30.813,-0.481 22.481,0.051 18.076,0.326 13.827,1.812 10.213,4.355 3.384,9.161 -0.481,17.187 0.051,25.519 c 0.275,4.405 1.761,8.654 4.304,12.268 3.246,4.613 8.013,7.947 13.458,9.41 v 0 c 1.068,0.281 2.167,-0.356 2.454,-1.421 v 0 c 0.286,-1.065 -0.351,-2.162 -1.423,-2.447 v 0 C 14.305,42.109 10.337,39.337 7.627,35.485 5.515,32.484 4.271,28.945 4.042,25.266 3.607,18.322 6.823,11.632 12.515,7.627 c 3.009,-2.118 6.54,-3.356 10.219,-3.585 6.944,-0.435 13.634,2.781 17.639,8.473 2.112,3.001 3.356,6.54 3.585,10.219 0.435,6.944 -2.781,13.634 -8.473,17.639 -1.717,1.209 -3.616,2.142 -5.632,2.753 z"
       style="fill:url(#_lgradient_18)"
       inkscape:connector-curvature="0" />
  </g>
</svg>

<?xml version="1.0" encoding="UTF-8" standalone="no"?><!-- Generator: Gravit.io --><svg xmlns="http://www.w3.org/2000/svg" xmlns:xlink="http://www.w3.org/1999/xlink" style="isolation:isolate" viewBox="0 0 48 48" width="48pt" height="48pt"><linearGradient id="_lgradient_15" x1="0" y1="0.5" x2="0.9074880558539661" y2="0.9200778838291643" gradientTransform="matrix(13.781,0,0,14.426,17.11,16.787)" gradientUnits="userSpaceOnUse"><stop offset="0%" stop-opacity="1" style="stop-color:rgb(0,196,255)"/><stop offset="83.88839793817618%" stop-opacity="1" style="stop-color:rgb(0,114,255)"/></linearGradient><path d=" M 24.289 16.795 C 26.305 16.903 28.102 17.839 29.344 19.271 C 28.274 18.174 26.867 17.398 25.288 17.105 L 23.479 22.181 L 30.474 21.021 C 30.647 21.4 30.787 21.796 30.89 22.207 C 30.87 22.14 30.848 22.074 30.824 22.009 L 30.824 22.009 L 25.462 23.002 L 29.794 28.175 C 29.588 28.465 29.362 28.739 29.117 28.995 L 25.731 25.105 L 23.421 31.213 C 23.057 31.189 22.7 31.139 22.353 31.063 L 24.019 26.387 L 17.553 27.459 C 17.382 27.146 17.234 26.818 17.11 26.479 L 22.036 25.566 L 17.668 20.35 C 17.852 20.039 18.058 19.742 18.284 19.463 L 21.767 23.463 L 24.289 16.795 Z  M 23.773 16.787 C 23.562 16.789 23.353 16.801 23.15 16.83 C 23.033 16.834 22.918 16.849 22.808 16.876 C 22.623 16.894 22.444 16.928 22.269 16.973 C 22.447 16.932 22.626 16.899 22.808 16.876 C 22.921 16.854 23.035 16.839 23.15 16.83 C 23.356 16.805 23.564 16.792 23.773 16.787 Z " fill-rule="evenodd" fill="url(#_lgradient_15)"/><linearGradient id="_lgradient_16" x1="0" y1="0.5" x2="0.9074880558539661" y2="0.9200778838291643"><stop offset="0%" stop-opacity="1" style="stop-color:rgb(0,196,255)"/><stop offset="83.88839793817618%" stop-opacity="1" style="stop-color:rgb(0,114,255)"/></linearGradient><circle vector-effect="non-scaling-stroke" cx="24" cy="24" r="7.5" fill="none" stroke-width="1" stroke="url(#_lgradient_16)" stroke-linejoin="miter" stroke-linecap="square" stroke-miterlimit="3"/><linearGradient id="_lgradient_17" x1="0" y1="0.5" x2="0.9074880558539661" y2="0.9200778838291643"><stop offset="0%" stop-opacity="1" style="stop-color:rgb(0,196,255)"/><stop offset="83.88839793817618%" stop-opacity="1" style="stop-color:rgb(0,114,255)"/></linearGradient><circle vector-effect="non-scaling-stroke" cx="24" cy="24" r="12.5" fill="none" stroke-width="2" stroke="url(#_lgradient_17)" stroke-linejoin="miter" stroke-linecap="square" stroke-miterlimit="3"/><linearGradient id="_lgradient_18" x1="0" y1="0.5" x2="0.9074880558539661" y2="0.9200778838291643" gradientTransform="matrix(27.624,39.255,39.255,-27.624,-9.439,18.184)" gradientUnits="userSpaceOnUse"><stop offset="0%" stop-opacity="1" style="stop-color:rgb(0,196,255)"/><stop offset="83.88839793817618%" stop-opacity="1" style="stop-color:rgb(0,114,255)"/></linearGradient><path d=" M 29.853 43.126 L 29.853 43.126 C 28.799 43.45 28.205 44.569 28.529 45.623 L 28.529 45.623 C 28.853 46.678 29.972 47.271 31.026 46.947 L 31.026 46.947 C 33.444 46.212 35.726 45.095 37.787 43.645 C 44.616 38.839 48.481 30.813 47.949 22.481 C 47.674 18.076 46.183 13.819 43.645 10.213 C 38.839 3.384 30.813 -0.481 22.481 0.051 C 18.076 0.326 13.827 1.812 10.213 4.355 C 3.384 9.161 -0.481 17.187 0.051 25.519 C 0.326 29.924 1.812 34.173 4.355 37.787 C 7.601 42.4 12.368 45.734 17.813 47.197 L 17.813 47.197 C 18.881 47.478 19.98 46.841 20.267 45.776 L 20.267 45.776 C 20.553 44.711 19.916 43.614 18.844 43.329 L 18.844 43.329 C 14.305 42.109 10.337 39.337 7.627 35.485 C 5.515 32.484 4.271 28.945 4.042 25.266 C 3.607 18.322 6.823 11.632 12.515 7.627 C 15.524 5.509 19.055 4.271 22.734 4.042 C 29.678 3.607 36.368 6.823 40.373 12.515 C 42.485 15.516 43.729 19.055 43.958 22.734 C 44.393 29.678 41.177 36.368 35.485 40.373 C 33.768 41.582 31.869 42.515 29.853 43.126 Z " fill="url(#_lgradient_18)"/></svg>
